X: 14801
T: Gånglåt Från Mockfjärd
R: hornpipe
M: 4/4
K: Dmajor
FG|A2>B2 A2G2|F2>D2 D2FG|ABAF A2d2|f4- Pf2ef|
g2bg f2af|e2ge d2fd|c2cA ^GABG|A4A2 FG|
A2>B2 A2G2|F2>D2 D2FG|ABAF A2d2|f4-Pf2 ef|
g2bg f2af|e2ge d2fd|c2ec Acec|d4d2||
|:ef|g2>a2 gfga|b2g2Pd2B2|A2f2 fefg|a6 g2|
f2e2 edef|g2e2 c2A2|1 F2A2 dcde|f6:|2 d2fd Acec|d6||

